src/assets/logos/youtube/YouTube.svg

<svg xmlns="http://www.w3.org/2000/svg" viewBox="0 0 24 24" fill="currentColor"><path d="M12.2439 4C12.778 4.00294 14.1143 4.01586 15.5341 4.07273L16.0375 4.09468C17.467 4.16236 18.8953 4.27798 19.6037 4.4755C20.5486 4.74095 21.2913 5.5155 21.5423 6.49732C21.942 8.05641 21.992 11.0994 21.9982 11.8358L21.9991 11.9884L21.9991 11.9991C21.9991 11.9991 21.9991 12.0028 21.9991 12.0099L21.9982 12.1625C21.992 12.8989 21.942 15.9419 21.5423 17.501C21.2878 18.4864 20.5451 19.261 19.6037 19.5228C18.8953 19.7203 17.467 19.8359 16.0375 19.9036L15.5341 19.9255C14.1143 19.9824 12.778 19.9953 12.2439 19.9983L12.0095 19.9991L11.9991 19.9991C11.9991 19.9991 11.9956 19.9991 11.9887 19.9991L11.7545 19.9983C10.6241 19.9921 5.89772 19.941 4.39451 19.5228C3.4496 19.2573 2.70692 18.4828 2.45587 17.501C2.0562 15.9419 2.00624 12.8989 2 12.1625V11.8358C2.00624 11.0994 2.0562 8.05641 2.45587 6.49732C2.7104 5.51186 3.45308 4.73732 4.39451 4.4755C5.89772 4.05723 10.6241 4.00622 11.7545 4H12.2439ZM9.99911 8.49914V15.4991L15.9991 11.9991L9.99911 8.49914Z"></path></svg>

<svg xmlns="http://www.w3.org/2000/svg" viewBox="0 0 24 24" fill="none">
  <path
    class="youtube-body"
    fill="currentColor"
    d="M12.244 4c.534.003 1.87.016 3.29.073l.504.022c1.429.067 2.857.183 3.566.38.945.266 1.687 1.04 1.938 2.022.4 1.559.45 4.602.456 5.339V12c0 .007 0 .01 0 .01v.152c-.006.737-.056 3.78-.456 5.339-.254.985-.997 1.76-1.938 2.022-.708.198-2.137.313-3.566.381l-.504.022c-1.42.057-2.756.07-3.29.073h-.235-.01-.234c-1.13-.006-5.857-.057-7.36-.475-.945-.265-1.687-1.04-1.938-2.021C2.056 15.942 2.006 12.899 2 12.162v-.327c.006-.736.056-3.78.456-5.338.255-.986.997-1.76 1.939-2.022C5.898 4.057 10.624 4.006 11.755 4h.489Z"
  />
  <path
    class="youtube-play"
    fill="white"
    d="M10 8.5v7l6-3.5-6-3.5Z"
  />
</svg>
